X:488
T:John's Tune
M:4/4
R:
K:G
"Chorus"
D2 | G2 G2 GA Bc | d4 B4 | c2 c2 A4 | B2 B2 G2 D2 |
G2 G2 GA Bc | d4 B4 | c2 c2 A2 F2 | G4 G2 :||
"This Old Man"
d2 B2 d4 | d2 B2 d4 | e2 d2 c2 B2 | A2 B2 c2 Bc |
d2 G2 G2 G2 | GA Bc d4 | d2 G2 A2 c2 | B2 A2 G4 :||
"Chorus"
D2 | G2 G2 GA Bc | d4 B4 | c2 c2 A4 | B2 B2 G2 D2 |
G2 G2 GA Bc | d4 B4 | c2 c2 A2 F2 | G4 G2 :||
"Skip to My Lou"
B2 BB G2 G2 | B2 B2 d4 | A2 AA F2 F2 | A2 A2 c4 |
B2 BB G2 G2 | B2 B2 d4 | A2 Bc B2 A2 | G4 G4 :|
"Chorus"
D2 | G2 G2 GA Bc | d4 B4 | c2 c2 A4 | B2 B2 G2 D2 |
G2 G2 GA Bc | d4 B4 | c2 c2 A2 F2 | G4 G2 :||
"Merrily We Roll Along"
B3 A G2 A2 | B2 B2 B4 | A2 A2 A4 | B2 d2 d4 |
B3 A G2 A2 | B2 B2 B4 | A2 A2 B2 A2 | G8 :|
"Chorus"
D2 | G2 G2 GA Bc | d4 B4 | c2 c2 A4 | B2 B2 G2 D2 |
G2 G2 GA Bc | d4 B4 | c2 c2 A2 F2 | G4 G2 :||
"The Grand Old Duke of York"
D2 | G2 G2 G2 G2 | G6 G2 | A2 A2 A2 A2 | A6 A2 |
B2 B2 B2 BB | c2 cc c2 cc | B2 G2 A2 F2 | G4 z2 ||
D2 | G2 GG G2 GG | G6 G2 | A2 AA A2 AA | A6 A2 |
B2 BB B2 B2 | c2 c2 c2 cc | B2 G2 A2 F2 | G4 |]
"Chorus"
D2 | G2 G2 GA Bc | d4 B4 | c2 c2 A4 | B2 B2 G2 D2 |
G2 G2 GA Bc | d4 B4 | c2 c2 A2 F2 | G4 G2 :||
"Bobby Shaftoe"
G2 G2 G2 c2 | B2 d2 B2 G2 | D2 D2 D2 G2 | F2 A2 F2 D2 |
G2 G2 G2 c2 | B2 d2 B2 G2 | A2 c2 A2 F2 | G4 G4 ||
B2 d2 B2 G2 | B2 d2 B4 | A2 c2 A2 F2 | A2 c2 A4 |
B2 d2 B2 G2 | B2 d2 B4 | A2 c2 A2 F2 | G4 G2 ||
"Chorus"
D2 | G2 G2 GA Bc | d4 B4 | c2 c2 A4 | B2 B2 G2 D2 |
G2 G2 GA Bc | d4 B4 | c2 c2 A2 F2 | G4 G2 :||
